icons/ship-fill.svg

<svg xmlns="http://www.w3.org/2000/svg" width="24" height="24" fill="none"><g clip-path="url(#a)"><g><path fill="#121212" d="M4 10.4V4C4 3.73478 4.10536 3.48043 4.29289 3.29289C4.48043 3.10536 4.73478 3 5 3H10V1H14V3H19C19.2652 3 19.5196 3.10536 19.7071 3.29289C19.8946 3.48043 20 3.73478 20 4V10.4L21.086 10.726C21.3321 10.8001 21.5402 10.966 21.6672 11.1895C21.7942 11.4129 21.8303 11.6767 21.768 11.926L20.252 17.994C19.4341 18.0359 18.6184 17.876 17.8769 17.5282C17.1354 17.1805 16.4908 16.6557 16 16C15.5347 16.6214 14.9309 17.1258 14.2365 17.473C13.5421 17.8202 12.7763 18.0006 12 18C11.2237 18.0006 10.4579 17.8202 9.76351 17.473C9.06913 17.1258 8.4653 16.6214 8 16C7.50921 16.6557 6.86464 17.1805 6.12313 17.5282C5.38161 17.876 4.56593 18.0359 3.748 17.994L2.232 11.926C2.1697 11.6767 2.20578 11.4129 2.33277 11.1895C2.45976 10.966 2.6679 10.8001 2.914 10.726L4 10.4ZM6 9.8L12 8L14.754 8.826L16.563 9.369L18 9.8V5H6V9.8ZM4 20C5.47626 20.002 6.90107 19.4578 8 18.472C9.09893 19.4578 10.5237 20.002 12 20C13.4763 20.002 14.9011 19.4578 16 18.472C17.0989 19.4578 18.5237 20.002 20 20H22V22H20C18.5956 22.0023 17.2157 21.6331 16 20.93C14.7843 21.6331 13.4044 22.0023 12 22C10.5956 22.0023 9.21565 21.6331 8 20.93C6.78435 21.6331 5.40436 22.0023 4 22H2V20H4Z"/></g></g><defs><clipPath id="a"><rect width="24" height="24" fill="white"/></clipPath></defs></svg>

<svg width="24" height="24" fill="none" xmlns="http://www.w3.org/2000/svg"><g clip-path="url(#a)"><path d="M4 10.4V4a1 1 0 0 1 1-1h5V1h4v2h5a1 1 0 0 1 1 1v6.4l1.086.326a1 1 0 0 1 .682 1.2l-1.516 6.068A4.992 4.992 0 0 1 16 16a4.992 4.992 0 0 1-4 2 4.992 4.992 0 0 1-4-2 4.991 4.991 0 0 1-4.252 1.994l-1.516-6.068a1 1 0 0 1 .682-1.2L4 10.4Zm2-.6L12 8l2.754.826 1.809.543L18 9.8V5H6v4.8ZM4 20a5.978 5.978 0 0 0 4-1.528A5.978 5.978 0 0 0 12 20a5.978 5.978 0 0 0 4-1.528A5.978 5.978 0 0 0 20 20h2v2h-2a7.963 7.963 0 0 1-4-1.07A7.963 7.963 0 0 1 12 22a7.963 7.963 0 0 1-4-1.07A7.963 7.963 0 0 1 4 22H2v-2h2Z" /></g><defs><clipPath id="a"><path fill="#fff" d="M0 0h24v24H0z"/></clipPath></defs></svg>
